X: 43530
T: You And I
R: reel
M: 4/4
K: Gdorian
GAGF DCDF|GAGF DFCD|F2AF cFAc|defe dcAF|
GAGF DCDF|GAGF DFCD|FGAB c2 dc|AFcA BG{A}GF:|
|:Gg{a}gf gabg|dg{a}gf gabg|cf{g}fe fgaf|cf{g}fe fgaf|
Gg{a}gf gabg|dg{a}gf gabg|FGAB c2 dc|AFcA BG{A}Gf:|

